X:18
T: Petrus und Pilatus
N: D0019
O: Europa, Mitteleuropa, Lothringen, Metz ( St. Vinzent )
N: Inzipit = Variante zum Lied, Verzierung
R: Kinder - Spiel
M: 2/2
L: 1/8
K: G
D2 | G2f2G2A2 | _B4=f4 |
=B4c4 | d4z2
d2 | _e2d2d2cc | d4_B2
d2 | c2_B2A2G2 | A4D4 |
G3GF4 | G4z2

@@@ Tune index: 2540
